!!!ONB: MCCC : ILB0171_02 : Extracted Monophonic Melody
!!!COM: Beethoven, Ludwig van
!!!OPR: Piano Sonata No.10
!!!OMV: 2
!!!SCT: Op.14 No.2
!!!ODT: 1798///
**kern
*thru
*staff1
*>A
*clefG2
*k[]
*C:
*M4/4
*MM112
16G
=1
8c
8r
8B
8r
8c
8r
8d
8r
=2
8e
8r
8f
8r
2d
=3
8g
8r
8g
8r
8g
8r
8g#
8r
=4
8a
8r
8a
8r
4d[
8.d]
16G
=5
8c
8r
8B
8r
8c
8r
8d
8r
=6
8e
8r
8f#
8r
2g
=7
8a
8r
8b-
8r
2b
=8
8cc
8r
8a
8r
8g
8r
8.r
*>B
16g
=9
4gg
4ff
4ee
4ee
=10
4ccc
4bb-
4aa[
8.aa]
16a
=11
4aa
4gg
4ff
4ee
=12
4dd
[4cc
4cc]
4b
=13
8cc
8r
8b
8r
8cc
8r
8dd
8r
=14
8ee
8r
8ff
8r
8dd
8r
[4gg
=15
4gg]
4gg[
4gg]
4ff
=16
8ee
8r
8dd
8r
8cc
8r
4r
=17
8B
8r
8c
8r
8c#
8r
8d
8r
=18
8d#
8r
8e
8r
2f[
=19
4f]
4e
4d
4f
=20
8e
8r
8d
8r
8c
8r
8.r
*>B
16g
=21
4gg
4ff
4ee
4ee
=22
4ccc
4bb-
4aa[
8.aa]
16a
=23
4aa
4gg
4ff
4ee
=24
4dd
[4cc
4cc]
4b
=25
8cc
8r
8b
8r
8cc
8r
8dd
8r
=26
8ee
8r
8ff
8r
8dd
8r
[4gg
=27
4gg]
4gg[
4gg]
4ff
=28
8ee
8r
8dd
8r
8cc
8r
4r
=29
8B
8r
8c
8r
8c#
8r
8d
8r
=30
8d#
8r
8e
8r
2f[
=31
4f]
4e
4d
4f
=32
8e
8r
8d
8r
8c
8r
8.r
*>C
16r
=33
8r
4gg
4gg
4gg
[8gg
=34
8gg]
4gg
4gg
8gg
8gg
8gg
=35
8r
4gg
4ff
4ee
8dd[
=36
8dd]
4cc
8dd
8cc
8b
8a
8g
=37
8gg
4gg
4gg
4gg
[8gg
=38
8gg]
8ccc
8ccc
8ccc
8ccc
8bb
8aa
8gg
=39
8r
8eee
8eee
8eee
8eee
8ddd
8ccc#
8ddd[
=40
8ddd]
8dd
8ee
8ff#[
8ff#]
8gg
8dd
8b
=41
8r
4gg
4gg
4gg
[8gg
=42
*>D
8gg]
4ff
8ee[
8ee]
8ff
8gg
8gg#
=43
8aa
4aa
4aa
4aa
[8aa
=44
8aa]
4ddd
8dd[
8dd]
4gg
16ff
16dd
=45
8cc
4gg
4gg
4gg
[8gg
=46
8gg]
4gg
4gg
4gg
8b[
=47
8b]
4cc
4cc#
4dd
[8aa
=48
8aa]
4cc
8b
8cc
8g
8e
8c
=49
8r
4B
8c
8r
4c#
8d
=50
8r
4d#
8e
8r
4f
[8f
=51
8f]
4f
4e
4d
[8f
=52
*>D1
8f]
4e
8d
4c
8r
8g
=53
8gg
4gg
4gg
4gg
8gg[
=54
*>D
8gg]
4ff
8ee[
8ee]
8ff
8gg
8gg#
=55
8aa
4aa
4aa
4aa
[8aa
=56
8aa]
4ddd
8dd[
8dd]
4gg
16ff
16dd
=57
8cc
4gg
4gg
4gg
[8gg
=58
8gg]
4gg
4gg
4gg
8b[
=59
8b]
4cc
4cc#
4dd
[8aa
=60
8aa]
4cc
8b
8cc
8g
8e
8c
=61
8r
4B
8c
8r
4c#
8d
=62
8r
4d#
8e
8r
4f
[8f
=63
8f]
4f
4e
4d
[8f
=64
*>D2
8f]
4e
8d
4c
8r
8g
=65
*>E
8cc
8cc
8r
8b
8r
8cc
8r
8dd
=66
8r
8ee
8r
8ff
8r
8dd
8r
8dd
=67
8r
8gg
8r
8gg
8r
8gg
8r
8gg#
=68
8r
8aa
8r
8aa
8r
4.dd
=69
8r
8cc
8r
8b
8r
8cc
8r
8dd
=70
8r
8ee
8r
8ff#
8r
4gg
8gg
=71
8r
8aa
8r
8bb-
8r
4bb
8bb
=72
8r
8ccc
8r
8aa
8r
4gg
24dd
24b
24g
=73
*>F
8r
8gg
8r
8ff
8r
8ee
8r
8ee
=74
8r
8ccc
8r
8bb-
8r
8aa
8r
8aa
=75
8r
8aa
8r
8gg
8r
8ff
8r
8ee
=76
8r
8dd
8r
8cc
8r
4.b
=77
8r
8cc
8r
8b
8r
8cc
8r
8dd
=78
8r
8ee
8r
8ff
8r
8dd
8r
8dd
=79
8r
8gg
8r
8gg
8r
8gg
8r
8ff
=80
8r
8ee
8r
8dd
8r
4cc
24g
24e
24c
=81
8r
8B
8r
8c
8r
8c#
8r
8d
=82
8r
8d#
8r
8e
8r
8f
8f
8f
=83
8r
8f
8r
8e
8r
8d
8r
8f
=84
*>F1
8r
8e
8r
8d
8r
8c
8g
8g
=85
*>F
8r
8gg
8r
8ff
8r
8ee
8r
8ee
=86
8r
8ccc
8r
8bb-
8r
8aa
8r
8aa
=87
8r
8aa
8r
8gg
8r
8ff
8r
8ee
=88
8r
8dd
8r
8cc
8r
4.b
=89
8r
8cc
8r
8b
8r
8cc
8r
8dd
=90
8r
8ee
8r
8ff
8r
8dd
8r
8dd
=91
8r
8gg
8r
8gg
8r
8gg
8r
8ff
=92
8r
8ee
8r
8dd
8r
4cc
24g
24e
24c
=93
8r
8B
8r
8c
8r
8c#
8r
8d
=94
8r
8d#
8r
8e
8r
8f
8f
8f
=95
8r
8f
8r
8e
8r
8d
8r
8f
=96
*>F2
8r
8e
8r
8d
8r
8c
8E
8E
=97
*>G
8r
8cc
8r
8b
8r
8a-
8r
8g
=98
8r
8ff
8r
8ff
8r
8ff
8r
8ff
=99
8r
8aa-
8r
8gg
8r
8ff#
8r
8ff
=100
8r
8ff
8r
8ff
8r
8ff
8r
8ff
=101
16r
16e
16cc
16g
16r
16f
16b
16g
16r
16f#
16cc
16g
16r
16g
16dd
16g
=102
16r
16g
16ee
16cc
16r
16a
16ff
16dd
16r
16g
16dd
16b
16dd
16b
16dd
16b
=103
16r
16g
16gg
16cc
16r
16g
16gg
16ff
16r
16g
16gg
16ee
16r
16g#
16gg#
16dd
=104
16r
16a
16aa
16cc
16r
16a
16aa
16ff
16dd
16b
16ff
16dd
16b
16g
16f
16d
=105
16r
16e
16cc
16g
16r
16f
16b
16g
16r
16f#
16cc
16g
16r
16d
16dd
16g
=106
16r
16e
16ee
16g
16r
16f#
16ff#
16cc
16r
16dd
16gg
16ff#
16gg
16dd
16b
16g
=107
16r
16ee
16aa
16gg
16r
16ee
16aa#
16gg
16r
16gg
16bb
16aa#
16bb
16gg
16dd
16b
=108
16dd
16cc
16ee
16cc
16b
16a
16g
16f#
16g
16a
16b
16cc
16dd
16ee
16ff
16ff#
=109
16r
16g
16gg
16cc
16r
16g
16ff
16b
16r
16g
16ee
16cc
16r
16g
16ee
16cc
=110
16r
16cc
16ccc
16ff
16r
16cc
16bb-
16ee
16r
16cc
16aa
16ff
16aa
16ff
16aa
16ff
=111
16r
16a
16aa
16cc
16r
16a
16gg
16cc#
16r
16a
16ff
16dd
16r
16g
16ee
16cc#
=112
16r
16f
16dd
16a
16r
16e-
16cc
16a
16r
16d
16cc
16g
16b
16g
16d
16g
=113
16r
16c
16cc
16g
16r
16f
16b
16g
16r
16e
16cc
16g
16r
16d
16dd
16g
=114
16r
16g
16ee
16cc
16r
16a
16ff
16dd
16r
16g
16dd
16b
16dd
16b
16dd
16b
=115
16r
16g
16gg
16cc
16r
16b-
16gg
16cc#
16r
16a
16gg
16cc#
16r
16a
16ff
16dd
=116
16r
16g
16ee
16cc
16r
16f
16dd
16b
16r
16e
16cc
16g
16f
16e
16d
16c
=117
1r
=118
2r
16r
16G
16f
16B
16f
16B
16f
16B
=119
16r
16G
16f
16B
16r
16G
16e
16c
16r
16F
16d
16c
16r
16A
16f
16c
=120
16r
16G
16e
16c
16r
16F
16d
16B
16r
16c
16d
16e
16f
16g
16a
16b
=121
8cc
8r
8b
8r
8cc
8r
8dd
8r
=122
8ee
8r
8ff
8r
8dd
8r
4r
=123
8gg
8r
8gg
8r
8gg
8r
8gg#
8r
=124
8aa
8r
4r
8f
8r
4r
=125
8ee
8r
4r
8d
8r
4r
=126
4ccc
4r
4r
8.r
==
*-
